X: 3
T: Leslie's March
R: jig
M: 6/8
L: 1/8
K: Gmaj
|:G3 G3|GFE DEF|GFE dcB|d2B A2G|
A3 AGA|BAG Adc|B2 A G2 D|GAB A2G :|
|:BAG A D2|BAG A D2|cBA B E2|cBA B E2|
BAG A D2|BAG Adc|B2 A G2 D|GAB A2G:|
|:GB/c/d GB/c/d|GB/c/d dBG|Ace Ace|Ace ecA|
GB/c/d GB/c/d|GB/c/d d2 c|BAG G2 D|GAB A2G :|


Tune 987	Setting 14188

